src/images/single-assets/BLZZ.svg

<svg xmlns="http://www.w3.org/2000/svg" width="857" height="857" fill="none"><path fill="#333336" d="M428.15 856.3c236.461 0 428.15-191.689 428.15-428.15S664.611 0 428.15 0 0 191.689 0 428.15 191.689 856.3 428.15 856.3"/><path fill="#9750F1" d="M695.355 461.597c-12.122-18.183-30.305-29.093-46.064-33.941-6.061-2.425-7.273-12.122 0-14.547 37.578-16.971 55.761-54.549 55.761-112.735 0-53.337-10.909-93.339-33.941-118.796C649.291 156.122 612.925 144 564.437 144H268.659c-52.125 0-80.005 48.488-84.854 83.642 0 4.849 3.636 8.485 7.273 6.061 10.91-6.061 26.668-7.273 36.366-7.273 41.215 0 73.945 15.758 92.128 55.761 3.636 8.486 8.485 4.849 8.485 0 1.212-12.122 2.424-15.758 7.273-20.607q7.274-7.274 29.093-7.274h136.979c19.396 0 33.942 4.849 43.639 13.335 8.486 9.697 13.335 24.244 13.335 44.851 0 21.82-4.849 37.579-13.335 46.064-8.485 8.485-23.032 13.334-42.427 13.334H397.153c14.546 27.881 23.031 59.398 23.031 92.128v13.334h86.067c20.608 0 35.154 4.849 44.851 14.546q14.547 14.547 14.547 47.276t-14.547 47.276-47.275 14.547H371.696c-4.848 0-8.485 1.212-10.909 4.848-7.274 7.274-15.759 13.335-24.245 19.396-2.424 2.424-4.848 4.849-4.848 8.485-1.212 12.122-8.486 44.852-44.852 48.488-23.032 2.425-43.639-12.122-50.913-33.941-1.212-4.849-2.424-9.698-2.424-15.759 0-2.424-2.424-4.849-4.849-4.849-2.424 0-4.849 2.425-4.849 4.849 0 4.849-1.212 9.698-2.424 15.759-3.637 10.909-10.91 19.395-19.395 25.456-3.637 2.424-4.849 7.273-1.213 10.91 14.547 18.183 36.367 26.668 67.884 26.668H571.71c53.337 0 90.915-13.334 111.523-38.79 20.607-26.669 30.305-65.459 30.305-117.584 2.424-41.215-4.849-71.52-18.183-93.34"/><path fill="#fff" d="M366.838 371.894c-9.698-14.547-23.032-29.093-37.578-40.003-6.061-4.849-12.123-8.485-19.396-13.334-3.636-1.213-6.061-4.849-6.061-8.486-8.485-33.941-38.79-56.973-73.944-56.973-16.971 0-32.729 6.061-44.851 14.546-13.334 9.698-24.244 25.456-29.093 42.427-1.212 3.637-3.637 6.061-6.061 8.486C96.517 348.862 65 403.411 65 462.809c0 36.366 12.122 71.52 33.942 99.401l1.212 1.212c2.424 3.637 7.273 6.061 12.122 6.061 8.485 0 15.758-7.273 15.758-15.758V529.48c0-7.273 6.061-13.334 13.334-13.334 7.274 0 13.335 6.061 13.335 13.334v100.613c0 12.123 9.697 23.032 23.031 23.032 3.637 0 8.486-1.212 10.91-3.636 4.849-2.425 8.486-7.273 9.698-12.122 1.212-2.425 1.212-4.849 1.212-7.274 0-16.97 14.546-31.517 31.517-31.517s31.518 14.547 31.518 31.517c0 2.425 0 4.849 1.212 7.274 2.424 9.697 12.122 15.758 21.819 15.758 12.122 0 23.032-9.697 23.032-23.032V528.268c0-7.273 6.061-13.334 13.334-13.334 4.849 0 7.273 2.424 10.91 4.849 2.424 2.424 3.637 4.849 3.637 8.485v26.669c0 8.485 7.273 15.758 15.758 15.758 4.849 0 9.698-2.424 12.122-6.061l1.213-1.212q29.093-38.184 32.729-87.279v-13.334c-3.636-32.729-13.334-64.247-31.517-90.915m-136.979 56.973c-16.971 0-32.729-3.636-44.851-10.909-18.183-9.698-31.518-25.457-31.518-43.64s12.123-33.942 31.518-43.639c12.122-6.061 27.88-10.91 44.851-10.91 42.427 0 76.369 24.244 76.369 53.337s-35.154 55.761-76.369 55.761"/><path fill="#fff" d="M263.804 362.196c-7.273 0-13.334 6.061-13.334 13.334 0 7.274 6.061 13.335 13.334 13.335 7.274 0 13.335-6.061 13.335-13.335 0-7.273-6.061-13.334-13.335-13.334M194.693 362.196c-4.849 0-8.486 2.424-10.91 4.849-1.212 2.424-2.425 4.848-2.425 8.485s1.213 6.061 2.425 8.485c2.424 3.637 6.061 4.849 10.91 4.849 7.273 0 13.334-6.061 13.334-13.334s-6.061-13.334-13.334-13.334"/></svg>

<svg width="857" height="857" viewBox="0 0 857 857" fill="none" xmlns="http://www.w3.org/2000/svg">
<path d="M428.15 856.3C664.611 856.3 856.3 664.611 856.3 428.15C856.3 191.689 664.611 0 428.15 0C191.689 0 0 191.689 0 428.15C0 664.611 191.689 856.3 428.15 856.3Z" fill="#333336"/>
<path d="M695.355 461.597C683.233 443.414 665.05 432.504 649.291 427.656C643.23 425.231 642.018 415.534 649.291 413.109C686.869 396.138 705.052 358.56 705.052 300.374C705.052 247.037 694.143 207.035 671.111 181.578C649.291 156.122 612.925 144 564.437 144H268.659C216.534 144 188.654 192.488 183.805 227.642C183.805 232.491 187.441 236.127 191.078 233.703C201.988 227.642 217.746 226.43 227.444 226.43C268.659 226.43 301.389 242.188 319.572 282.191C323.208 290.677 328.057 287.04 328.057 282.191C329.269 270.069 330.481 266.433 335.33 261.584C340.179 256.735 349.877 254.31 364.423 254.31H501.402C520.798 254.31 535.344 259.159 545.041 267.645C553.527 277.342 558.376 291.889 558.376 312.496C558.376 334.316 553.527 350.075 545.041 358.56C536.556 367.045 522.009 371.894 502.614 371.894H397.153C411.699 399.775 420.184 431.292 420.184 464.022C420.184 468.87 420.184 472.507 420.184 477.356H506.251C526.859 477.356 541.405 482.205 551.102 491.902C560.8 501.6 565.649 517.359 565.649 539.178C565.649 560.998 560.8 576.757 551.102 586.454C541.405 596.152 525.646 601.001 503.827 601.001H371.696C366.848 601.001 363.211 602.213 360.787 605.849C353.513 613.123 345.028 619.184 336.542 625.245C334.118 627.669 331.694 630.094 331.694 633.73C330.482 645.852 323.208 678.582 286.842 682.218C263.81 684.643 243.203 670.096 235.929 648.277C234.717 643.428 233.505 638.579 233.505 632.518C233.505 630.094 231.081 627.669 228.656 627.669C226.232 627.669 223.807 630.094 223.807 632.518C223.807 637.367 222.595 642.216 221.383 648.277C217.746 659.186 210.473 667.672 201.988 673.733C198.351 676.157 197.139 681.006 200.775 684.643C215.322 702.826 237.142 711.311 268.659 711.311H571.71C625.047 711.311 662.625 697.977 683.233 672.521C703.84 645.852 713.538 607.062 713.538 554.937C715.962 513.722 708.689 483.417 695.355 461.597Z" fill="#9750F1"/>
<path d="M366.838 371.894C357.14 357.347 343.806 342.801 329.26 331.891C323.199 327.042 317.137 323.406 309.864 318.557C306.228 317.344 303.803 313.708 303.803 310.071C295.318 276.13 265.013 253.098 229.859 253.098C212.888 253.098 197.13 259.159 185.008 267.644C171.674 277.342 160.764 293.1 155.915 310.071C154.703 313.708 152.278 316.132 149.854 318.557C96.5172 348.862 65 403.411 65 462.809C65 499.175 77.1219 534.329 98.9415 562.21L100.154 563.422C102.578 567.059 107.427 569.483 112.276 569.483C120.761 569.483 128.034 562.21 128.034 553.725V529.48C128.034 522.207 134.095 516.146 141.368 516.146C148.642 516.146 154.703 522.207 154.703 529.48V630.093C154.703 642.216 164.4 653.125 177.734 653.125C181.371 653.125 186.22 651.913 188.644 649.489C193.493 647.064 197.13 642.216 198.342 637.367C199.554 634.942 199.554 632.518 199.554 630.093C199.554 613.123 214.1 598.576 231.071 598.576C248.042 598.576 262.589 613.123 262.589 630.093C262.589 632.518 262.589 634.942 263.801 637.367C266.225 647.064 275.923 653.125 285.62 653.125C297.742 653.125 308.652 643.428 308.652 630.093V528.268C308.652 520.995 314.713 514.934 321.986 514.934C326.835 514.934 329.259 517.358 332.896 519.783C335.32 522.207 336.533 524.632 336.533 528.268V554.937C336.533 563.422 343.806 570.695 352.291 570.695C357.14 570.695 361.989 568.271 364.413 564.634L365.626 563.422C385.021 537.966 395.931 508.873 398.355 476.143C398.355 471.295 398.355 467.658 398.355 462.809C394.719 430.08 385.021 398.562 366.838 371.894ZM229.859 428.867C212.888 428.867 197.13 425.231 185.008 417.958C166.825 408.26 153.49 392.501 153.49 374.318C153.49 356.135 165.613 340.376 185.008 330.679C197.13 324.618 212.888 319.769 229.859 319.769C272.286 319.769 306.228 344.013 306.228 373.106C306.228 402.199 271.074 428.867 229.859 428.867Z" fill="white"/>
<path d="M263.804 362.196C256.531 362.196 250.47 368.257 250.47 375.53C250.47 382.804 256.531 388.865 263.804 388.865C271.078 388.865 277.139 382.804 277.139 375.53C277.139 368.257 271.078 362.196 263.804 362.196Z" fill="white"/>
<path d="M194.693 362.196C189.844 362.196 186.207 364.62 183.783 367.045C182.571 369.469 181.358 371.893 181.358 375.53C181.358 379.167 182.571 381.591 183.783 384.015C186.207 387.652 189.844 388.864 194.693 388.864C201.966 388.864 208.027 382.803 208.027 375.53C208.027 368.257 201.966 362.196 194.693 362.196Z" fill="white"/>
</svg>
